{"compressionlevel":-1,"infinite":false,"orientation":"orthogonal","renderorder":"right-down","width":38,"height":26,"tilewidth":16,"tileheight":16,"nextlayerid":99,"nextobjectid":27,"version":"1.10","tiledversion":"1.10.2","type":"map","tilesets":[{"firstgid":1,"columns":16,"image":"../tilesets/office-tileset.png","imageheight":512,"imagewidth":256,"margin":0,"name":"office-tileset","spacing":0,"tilecount":512,"tileheight":16,"tilewidth":16},{"firstgid":513,"source":"A5 Office Floors & Walls.tsx"},{"firstgid":1025,"source":"interiors.tsx"},{"firstgid":2449,"columns":16,"image":"../tilesets/wizardschool-castle.png","imageheight":112,"imagewidth":256,"margin":0,"name":"wizardschool-castle","spacing":0,"tilecount":112,"tileheight":16,"tilewidth":16}],"layers":[{"id":1,"name":"floor","type":"tilelayer","data":[0,0,0,0,0,0,0,0,0,0,0,0,0,0,0,0,0,0,0,0,0,0,0,0,0,0,0,0,0,0,0,0,0,0,0,0,0,0,0,2449,2450,2449,2450,2449,2450,2449,2450,2449,2450,2449,2450,2449,2450,2449,2450,2451,2451,2449,2450,2449,2450,2449,2450,0,2454,2453,2454,2453,2454,2453,2454,2453,2454,2453,2454,0,0,2450,2449,2450,2449,2450,2449,2450,2449,2450,2449,2450,2449,2450,2449,2451,2449,2450,2449,2450,2449,2450,2449,2450,2449,0,2453,2454,2453,2454,2453,2454,2453,2454,2453,2454,2453,0,0,2449,2450,2449,2450,2449,2450,2449,2450,2449,2450,2449,2450,2449,2450,2449,2450,2449,2450,2449,2450,2451,2450,2449,2450,0,2454,2453,2454,2453,2454,2453,2454,2453,2454,2453,2454,0,0,2450,2449,2450,2449,2450,2449,2450,2449,2452,2449,2450,2449,2450,2449,2450,2449,2450,2449,2450,2449,2450,2449,2450,2449,0,2453,2454,2453,2454,2453,2454,2453,2454,2453,2454,2453,0,0,2449,2450,2449,2450,2449,2450,2449,2450,2449,2450,2449,2457,2459,2450,2449,2450,2452,2450,2449,2450,2449,2451,2449,2450,0,2454,2453,2454,2453,2454,2453,2454,2453,2454,2453,2454,0,0,2450,2449,2450,2449,2450,2449,2450,2449,2450,2449,2450,2457,2459,2449,2450,2449,2450,2449,2450,2449,2450,2449,2450,2449,0,2453,2454,2453,2454,2453,2454,2453,2454,2453,2454,2453,0,0,2449,2450,2449,2450,2452,2450,2449,2450,2451,2450,2449,2457,2459,2450,2449,2450,2449,2450,2449,2450,2449,2450,2449,2450,0,2454,2453,2454,2453,2454,2453,2454,2453,2454,2453,2454,0,0,2450,2449,2450,2449,2450,2449,2450,2449,2450,2449,2450,2457,2459,2449,2450,2449,2450,2452,2450,2449,2450,2449,2450,2449,0,2453,2454,2453,2454,2453,2454,2453,2454,2453,2454,2453,0,0,2449,2450,2449,2450,2452,2450,2449,2450,2449,2450,2449,2457,2459,2450,2449,2450,2449,2450,2449,2450,2449,2450,2449,2450,0,2454,2453,2454,2453,2454,2453,2454,2453,2454,2453,2454,0,0,2450,2449,2450,2449,2450,2449,2450,2449,2450,2449,2450,2457,2459,2449,2452,2449,2450,2449,2451,2449,2450,2449,2450,2449,0,2453,2454,2453,2454,2453,2454,2453,2454,2453,2454,2453,0,0,2449,2450,2449,2450,2449,2450,2449,2450,2449,2450,2449,2457,2459,2450,2449,2450,2449,2450,2449,2450,2449,2450,2449,2450,0,2454,2453,2454,2453,2454,2453,2454,2453,2454,2453,2454,0,0,2450,2449,2450,2449,2450,2449,2450,2449,2450,2449,2450,2457,2459,2449,2450,2449,2450,2449,2450,2449,2450,2449,2450,2449,0,2453,2454,2453,2454,2453,2454,2453,2454,2453,2454,2453,0,0,2449,2450,2449,2450,2449,2450,2449,2450,2449,2450,2449,2457,2459,2451,2449,2450,2449,2450,2449,2451,2449,2450,2449,2450,0,2454,2453,2454,2453,2454,2453,2454,2453,2454,2453,2454,0,0,2450,2449,2450,2449,2450,2449,2450,2449,2450,2452,2450,2457,2459,2449,2450,2449,2450,2451,2451,2449,2450,2449,2450,2449,0,2453,2454,2453,2454,2453,2454,2453,2454,2453,2454,2453,0,0,2449,2450,2449,2450,2449,2450,2449,2450,2449,2452,2449,2457,2459,2450,2449,2450,2449,2450,2449,2452,2449,2450,2449,2450,0,2454,2453,2454,2453,2454,2453,2454,2453,2454,2453,2454,0,0,2450,2449,2450,2449,2450,2449,2450,2449,2450,2449,2450,2457,2459,2449,2450,2449,2450,2449,2450,2449,2450,2449,2452,2449,0,2453,2454,2453,2454,2453,2454,2453,2454,2453,2454,2453,0,0,2449,2450,2451,2450,2449,2452,2449,2450,2449,2450,2449,2457,2459,2450,2449,2450,2449,2450,2449,2450,2449,2450,2449,2450,0,2454,2453,2454,2453,2454,2453,2454,2453,2454,2453,2454,0,0,2450,2449,2450,2449,2450,2449,2450,2449,2450,2452,2450,2457,2459,2449,2450,2449,2450,2449,2450,2449,2450,2449,2450,2449,0,2453,2454,2453,2454,2453,2454,2453,2454,2453,2454,2453,0,0,2449,2450,2451,2450,2449,2450,2449,2450,2449,2450,2449,2457,2459,2450,2449,2450,2452,2450,2449,2450,2449,2450,2449,2450,0,2454,2453,2454,2453,2454,2453,2454,2453,2454,2453,2454,0,0,2450,2449,2450,2449,2450,2449,2450,2449,2450,2449,2450,2457,2459,2449,2450,2449,2450,2449,2450,2449,2450,2449,2450,2449,0,2453,2454,2453,2454,2453,2454,2453,2454,2453,2454,2453,0,0,2449,2450,2449,2450,2449,2450,2451,2450,2449,2450,2449,2457,2459,2450,2449,2452,2449,2450,2449,2450,2449,2450,2449,2450,0,2454,2453,2454,2453,2454,2453,2454,2453,2454,2453,2454,0,0,2450,2449,2451,2449,2450,2449,2450,2449,2450,2449,2450,2457,2459,2449,2451,2449,2450,2449,2450,2449,2450,2449,2450,2449,0,2453,2454,2453,2454,2453,2454,2453,2454,2453,2454,2453,0,0,2449,2451,2449,2450,2449,2450,2449,2450,2449,2450,2449,2457,2459,2450,2449,2450,2449,2450,2449,2450,2449,2450,2449,2450,0,2454,2453,2454,2453,2454,2453,2454,2453,2454,2453,2454,0,0,2450,2449,2450,2449,2450,2449,2450,2449,2450,2449,2450,2457,2459,2449,2450,2449,2450,2449,2450,2449,2450,2449,2450,2449,0,2453,2454,2453,2454,2453,2454,2453,2454,2453,2454,2453,0,0,0,0,0,0,0,0,0,0,0,0,0,0,0,0,0,0,0,0,0,0,0,0,0,0,0,0,0,0,0,0,0,0,0,0,0,0,0],"width":38,"height":26,"x":0,"y":0,"opacity":1,"visible":true},{"id":2,"name":"walls","type":"tilelayer","data":[2467,2467,2467,2467,2467,2467,2467,2467,2467,2467,2467,2467,2467,2467,2467,2467,2467,2467,2467,2467,2467,2467,2467,2467,2467,2467,2467,2467,2467,2467,2467,2467,2467,2467,2467,2467,2467,2467,2465,2465,2465,2481,2482,2465,2497,2461,2460,2481,2482,2465,2499,2465,2465,2481,2482,2465,2501,2465,2465,2481,2482,2503,2465,2465,2465,2465,2465,2465,2465,2465,2465,2465,2465,2465,2465,2466,2466,2468,2468,2483,2484,2468,2498,2460,2461,2483,2484,2468,2500,2468,2468,2483,2484,2468,2502,2468,2468,2483,2484,2504,2468,2468,2468,2468,2468,2468,2468,2468,2468,2468,2468,2468,2468,2465,2465,0,0,0,0,0,0,0,0,0,0,0,0,0,0,0,0,0,0,0,0,0,0,0,0,2466,0,0,0,0,0,0,0,0,0,0,0,2466,2466,0,0,0,0,0,0,0,0,0,0,0,0,0,0,0,0,0,0,0,0,0,0,0,0,2465,0,0,0,0,0,0,0,0,0,0,0,2465,2465,0,0,0,0,0,0,0,0,0,0,0,0,0,0,0,0,0,0,0,0,0,0,0,0,2466,0,0,0,0,0,0,0,0,0,0,0,2466,2466,0,0,0,0,0,0,0,0,0,0,0,0,0,0,0,0,0,0,0,0,0,0,0,0,2489,0,0,0,0,0,0,0,0,0,0,0,2465,2465,0,0,0,0,0,0,0,0,0,0,0,0,0,0,0,0,0,0,0,0,0,0,0,0,2490,0,0,0,0,0,0,0,0,0,0,0,2466,2466,0,0,0,0,0,0,0,0,0,0,0,0,0,0,0,0,0,0,0,0,0,0,0,0,2465,0,0,0,0,0,0,0,0,0,0,0,2465,2465,0,0,0,0,0,0,0,0,0,0,0,0,0,0,0,0,0,0,0,0,0,0,0,0,2466,0,0,0,0,0,0,0,0,0,0,0,2466,2466,0,0,0,0,0,0,0,0,0,0,0,0,0,0,0,0,0,0,0,0,0,0,0,0,2465,0,0,0,0,0,0,0,0,0,0,0,2465,2465,0,0,0,0,0,0,0,0,0,0,0,0,0,0,0,0,0,0,0,0,0,0,0,0,2466,0,0,0,0,0,0,0,0,0,0,0,2466,2466,0,0,0,0,0,0,0,0,0,0,0,0,0,0,0,0,0,0,0,0,0,0,0,0,2465,2466,2465,2466,2465,2466,2465,2466,2465,2466,2465,2466,2465,2465,0,0,0,0,0,0,0,0,0,0,0,0,0,0,0,0,0,0,0,0,0,0,0,0,2466,0,0,0,0,0,0,0,0,0,0,0,2466,2466,0,0,0,0,0,0,0,0,0,0,0,0,0,0,0,0,0,0,0,0,0,0,0,0,2465,0,0,0,0,0,0,0,0,0,0,0,2465,2465,0,0,0,0,0,0,0,0,0,0,0,0,0,0,0,0,0,0,0,0,0,0,0,0,2466,0,0,0,0,0,0,0,0,0,0,0,2466,2466,0,0,0,0,0,0,0,0,0,0,0,0,0,0,0,0,0,0,0,0,0,0,0,0,2465,0,0,0,0,0,0,0,0,0,0,0,2465,2465,0,0,0,0,0,0,0,0,0,0,0,0,0,0,0,0,0,0,0,0,0,0,0,0,2466,0,0,0,0,0,0,0,0,0,0,0,2466,2466,0,0,0,0,0,0,0,0,0,0,0,0,0,0,0,0,0,0,0,0,0,0,0,0,2489,0,0,0,0,0,0,0,0,0,0,0,2465,2465,0,0,0,0,0,0,0,0,0,0,0,0,0,0,0,0,0,0,0,0,0,0,0,0,2490,0,0,0,0,0,0,0,0,0,0,0,2466,2466,0,0,0,0,0,0,0,0,0,0,0,0,0,0,0,0,0,0,0,0,0,0,0,0,2465,0,0,0,0,0,0,0,0,0,0,0,2465,2465,0,0,0,0,0,0,0,0,0,0,0,0,0,0,0,0,0,0,0,0,0,0,0,0,2466,0,0,0,0,0,0,0,0,0,0,0,2466,2466,0,0,0,0,0,0,0,0,0,0,0,0,0,0,0,0,0,0,0,0,0,0,0,0,2465,0,0,0,0,0,0,0,0,0,0,0,2465,2465,0,0,0,0,0,0,0,0,0,0,0,0,0,0,0,0,0,0,0,0,0,0,0,0,2466,0,0,0,0,0,0,0,0,0,0,0,2466,2466,0,0,0,0,0,0,0,0,0,0,0,0,0,0,0,0,0,0,0,0,0,0,0,0,2465,0,0,0,0,0,0,0,0,0,0,0,2465,2465,2466,2465,2466,2465,2466,2465,2466,2465,2466,2465,2466,2491,2492,2465,2466,2465,2466,2465,2466,2465,2466,2465,2466,2465,2466,2465,2466,2465,2466,2465,2466,2465,2466,2465,2466,2465,2466],"width":38,"height":26,"x":0,"y":0,"opacity":1,"visible":true},{"id":3,"name":"furniture-below","type":"tilelayer","data":[0,0,0,0,0,0,0,0,0,0,0,0,0,0,0,0,0,0,0,0,0,0,0,0,0,0,0,0,0,0,0,0,0,0,0,0,0,0,0,0,0,0,0,0,0,0,0,0,0,0,0,0,0,0,0,0,0,0,0,0,0,0,0,0,0,0,0,0,0,0,0,0,0,0,0,0,0,0,0,0,0,0,0,0,0,0,0,0,0,0,0,0,0,0,0,0,0,0,0,0,0,0,0,0,0,0,0,0,0,0,0,0,0,0,0,0,0,0,0,0,0,0,2541,2541,2541,2541,2541,2541,2541,2541,2541,2541,0,0,0,0,0,0,0,0,0,0,0,0,0,0,0,0,153,154,0,0,0,0,0,0,0,0,0,0,2542,2542,2542,2542,2542,2542,2542,2542,2542,2542,0,0,0,0,0,0,0,0,0,0,0,0,0,0,0,0,169,170,0,0,0,0,0,0,0,0,0,0,0,0,0,0,2543,0,0,0,0,0,0,0,0,0,0,0,0,0,0,0,0,0,0,0,0,0,0,0,0,0,0,0,0,0,0,0,0,0,0,0,0,0,0,0,0,0,0,0,0,0,0,0,0,0,0,0,0,2530,2530,2530,2530,0,2530,2530,2530,2530,0,0,0,0,2529,2529,2529,2529,2529,2529,2529,2529,2529,2529,0,0,2529,2529,2529,2529,2529,2529,2529,2529,2529,2529,0,0,0,0,0,0,0,0,0,0,0,0,0,0,0,0,2533,2530,2530,2530,2530,2530,2530,2530,2530,2534,0,0,2533,2530,2530,2530,2530,2530,2530,2530,2530,2534,0,0,0,0,0,0,0,0,0,0,0,0,0,0,0,0,2535,2535,2535,2535,2535,2535,2535,2535,2535,2536,0,0,2535,2535,2535,2535,2535,2535,2535,2535,2535,2536,0,0,0,0,0,0,0,0,0,0,0,0,0,0,0,0,0,0,0,0,0,0,0,0,0,0,0,0,0,0,0,0,0,0,0,0,0,0,0,0,0,0,0,0,0,0,0,0,0,0,0,0,0,0,2529,2529,2529,2529,2529,2529,2529,2529,2529,2529,0,0,2529,2529,2529,2529,2529,2529,2529,2529,2529,2529,0,0,0,0,0,0,0,0,0,0,0,0,0,0,0,0,2533,2530,2530,2530,2530,2530,2530,2530,2530,2534,0,0,2533,2530,2530,2530,2530,2530,2530,2530,2530,2534,0,0,0,0,0,0,0,0,0,0,0,0,0,0,0,0,2535,2535,2535,2535,2535,2535,2535,2535,2535,2536,0,0,2535,2535,2535,2535,2535,2535,2535,2535,2535,2536,0,0,153,154,0,0,0,0,0,2518,2519,2520,0,0,0,0,0,0,0,0,0,0,0,0,0,0,0,0,0,0,0,0,0,0,0,0,0,0,0,0,169,170,0,0,0,0,0,0,0,0,0,0,0,0,2529,2529,2529,2529,2529,2529,2529,2529,2529,2529,0,0,2529,2529,2529,2529,2529,2529,2529,2529,2529,2529,0,0,0,0,0,0,0,0,0,257,0,259,0,0,0,0,2533,2530,2530,2530,2530,2530,2530,2530,2530,2534,0,0,2533,2530,2530,2530,2530,2530,2530,2530,2530,2534,0,0,0,0,0,0,2530,2530,2530,2530,2530,2530,0,0,0,0,2535,2535,2535,2535,2535,2535,2535,2535,2535,2536,0,0,2535,2535,2535,2535,2535,2535,2535,2535,2535,2536,0,0,0,0,0,0,0,0,0,0,0,0,0,0,0,0,0,0,0,0,0,0,0,0,0,0,0,0,0,0,0,0,0,0,0,0,0,0,0,0,0,0,0,0,0,0,0,0,0,0,0,0,0,0,2529,2529,2529,2529,2529,2529,2529,2529,2529,2529,0,0,2529,2529,2529,2529,2529,2529,2529,2529,2529,2529,0,0,0,0,0,0,0,0,0,0,0,0,0,0,0,0,2533,2530,2530,2530,2530,2530,2530,2530,2530,2534,0,0,2533,2530,2530,2530,2530,2530,2530,2530,2530,2534,0,0,0,0,2530,2530,0,0,0,0,0,0,0,0,0,0,2535,2535,2535,2535,2535,2535,2535,2535,2535,2536,0,0,2535,2535,2535,2535,2535,2535,2535,2535,2535,2536,0,0,0,0,0,0,0,0,0,0,0,0,0,0,0,0,0,0,0,0,0,0,0,0,0,0,0,0,0,0,0,0,0,0,0,0,0,0,0,0,0,0,0,0,0,0,0,0,0,0,0,0,0,0,0,0,0,0,0,0,0,0,0,0,0,0,0,0,0,0,0,0,0,0,0,0,0,0,0,0,0,0,0,0,0,0,0,0,0,0,0,0,0,0,0,0,0,0,0,0,0,0,0,0,0,0,0,0,0,0,0,0,0,0,0,0,0,0,0,0,0,0,0,0,0,0,0,0,0,0,0,0,0,0,0,0,0,0,0,0,0,0,0,0,0,0,0,0,0,0,0,0,0,0,0,0,0,0,0,0,0,0,0,0,0,0],"width":38,"height":26,"x":0,"y":0,"opacity":1,"visible":true},{"id":4,"name":"furniture-above","type":"tilelayer","data":[0,0,0,0,0,0,0,0,0,0,0,0,0,0,0,0,0,0,0,0,0,0,0,0,0,0,0,0,0,0,0,0,0,0,0,0,0,0,0,0,0,0,0,0,0,0,0,0,0,0,0,0,0,0,0,0,0,0,0,0,0,0,0,0,0,0,0,0,0,0,0,0,0,0,0,0,0,0,2513,0,0,0,0,0,0,0,0,2513,0,0,0,0,0,0,0,0,2513,0,0,0,0,0,0,0,0,0,0,0,0,0,0,0,0,0,0,0,0,0,0,0,0,0,0,0,0,0,2521,2522,0,2514,0,0,0,0,0,0,0,0,0,0,0,2544,0,0,0,2547,0,0,0,0,2556,0,0,0,0,0,0,0,0,2553,0,2544,0,0,2537,2538,0,2515,0,0,0,0,0,0,0,0,0,0,0,0,0,0,0,0,0,0,0,0,2557,0,0,0,0,0,0,0,0,0,0,0,0,0,0,0,0,0,0,0,0,0,0,0,0,0,0,0,0,0,0,0,0,0,0,0,0,0,0,0,0,2553,0,0,0,0,0,0,0,0,0,0,0,0,0,0,0,0,0,0,0,0,0,0,2553,0,0,0,2546,0,2545,0,0,2546,0,2545,0,0,0,0,0,2532,2521,2522,2514,0,2521,2522,2531,0,0,0,0,2532,2521,2522,2514,0,2521,2522,2531,0,0,0,0,0,0,0,0,0,0,0,0,0,0,0,0,0,0,0,2537,2538,2515,0,2537,2538,0,0,0,0,0,0,2537,2538,2515,0,2537,2538,0,0,0,0,0,0,0,2549,0,0,0,2551,0,0,0,0,0,0,0,0,0,0,0,0,0,0,0,0,0,0,0,0,0,0,0,0,0,0,0,0,0,0,0,0,0,0,0,0,0,0,0,0,0,0,0,0,0,0,0,0,0,0,0,0,0,0,0,0,0,0,0,0,0,0,0,0,0,0,0,0,0,0,0,0,0,0,0,0,0,2552,0,0,0,0,0,2532,2521,2522,2514,0,2521,2522,2531,0,0,0,0,2532,2521,2522,2514,0,2521,2522,2531,0,0,0,0,0,2553,0,0,0,0,0,0,0,0,0,0,0,0,0,2537,2538,2515,0,2537,2538,0,0,0,0,0,0,2537,2538,2515,0,2537,2538,0,0,0,0,0,0,0,0,0,0,0,0,0,0,0,0,0,0,0,0,0,0,0,0,0,0,0,0,0,0,0,0,0,0,0,0,0,0,0,0,0,0,0,0,0,0,0,0,0,0,0,0,0,0,0,0,0,0,0,0,0,0,0,0,0,0,0,0,0,0,0,0,0,0,0,0,0,0,0,0,0,0,0,0,0,0,0,0,0,0,0,0,0,0,0,2532,2521,2522,2514,0,2521,2522,2531,0,0,0,0,2532,2521,2522,2514,0,2521,2522,2531,0,0,0,0,0,0,0,0,0,0,0,0,0,2558,0,0,0,0,0,2537,2538,2515,0,2537,2538,0,0,0,0,0,0,2537,2538,2515,0,2537,2538,0,0,0,0,0,0,0,0,2531,0,2546,0,2532,0,0,0,0,0,0,0,0,0,0,0,0,0,0,0,0,0,0,0,0,0,0,0,0,0,0,0,0,0,0,2554,0,0,0,0,0,0,0,0,0,0,0,0,0,0,0,0,0,0,0,0,0,0,0,0,0,0,0,0,0,0,0,0,0,0,0,0,0,0,0,0,0,0,0,0,0,0,0,0,0,0,0,2532,2521,2522,2514,0,2521,2522,2531,0,0,0,0,2532,2521,2522,2514,0,2521,2522,2531,0,0,0,0,0,0,0,0,0,0,0,0,0,2558,0,0,0,0,0,2537,2538,2515,0,2537,2538,0,0,0,0,0,0,2537,2538,2515,0,2537,2538,0,0,0,0,0,0,2550,0,0,0,0,0,0,0,0,0,0,0,0,0,0,0,0,0,0,0,0,0,0,0,0,0,0,0,0,0,0,0,0,0,0,0,0,0,0,0,0,0,0,0,0,0,0,0,0,0,0,0,0,0,0,0,0,0,0,0,0,0,0,0,0,0,0,0,0,0,0,0,2556,0,2558,0,0,0,0,2560,0,0,2559,0,0,0,0,2558,0,0,0,0,0,0,0,0,0,0,0,0,0,0,0,0,0,0,0,0,0,0,2557,0,0,0,0,0,0,0,0,0,0,0,0,0,0,0,0,0,0,0,0,0,0,0,0,0,0,0,0,0,0,0,0,0,0,0,0,0,0,0,0,0,0,0,2558,0,0,0,0,0,0,0,0,0,0,0,0,0,0,0,0,0,0,0,0,0,0,0,0,0,0,0,0,0,0,0,0,0,0,0,0,0,0,0,0,0,0,0,0,0],"width":38,"height":26,"x":0,"y":0,"opacity":1,"visible":true},{"id":5,"name":"collision","type":"tilelayer","data":[1,1,1,1,1,1,1,1,1,1,1,1,1,1,1,1,1,1,1,1,1,1,1,1,1,1,1,1,1,1,1,1,1,1,1,1,1,1,1,1,1,1,1,1,1,1,1,1,1,1,1,1,1,1,1,1,1,1,1,1,1,1,1,1,1,1,1,1,1,1,1,1,1,1,1,1,1,1,1,1,1,1,1,1,1,1,1,1,1,1,1,1,1,1,1,1,1,1,1,1,1,1,1,1,1,1,1,1,1,1,1,1,1,1,1,0,0,0,0,0,0,0,1,1,1,1,1,1,1,1,1,1,0,0,0,0,0,0,0,1,0,1,0,0,0,1,0,0,1,1,1,1,1,0,0,0,0,0,0,1,1,1,1,1,1,1,1,1,1,1,0,0,0,0,0,0,0,1,0,0,0,0,0,0,0,0,1,1,1,1,1,0,0,0,0,0,0,0,0,0,0,0,0,0,0,0,0,0,0,0,0,0,0,0,0,1,0,0,0,0,0,0,0,0,0,0,0,1,1,1,0,0,0,0,0,0,0,0,0,0,0,0,0,0,0,0,0,0,0,0,0,0,1,0,0,1,1,1,1,0,1,1,1,1,0,1,1,0,1,1,1,1,1,1,1,1,1,1,0,0,1,1,1,1,1,1,1,1,1,1,0,0,0,0,0,0,0,0,0,0,0,0,0,1,1,0,1,1,1,1,1,1,1,1,1,1,0,0,1,1,1,1,1,1,1,1,1,1,0,1,0,0,0,0,0,0,0,0,0,0,0,1,1,0,0,0,0,0,0,0,0,0,0,0,0,0,0,0,0,0,0,0,0,0,0,0,0,1,0,0,0,0,0,0,0,0,0,0,0,1,1,0,0,0,0,0,0,0,0,0,0,0,0,0,0,0,0,0,0,0,0,0,0,0,0,1,0,0,0,0,0,0,0,0,0,1,0,1,1,0,1,1,1,1,1,1,1,1,1,1,0,0,1,1,1,1,1,1,1,1,1,1,0,1,0,0,1,0,0,0,0,0,0,0,0,1,1,0,1,1,1,1,1,1,1,1,1,1,0,0,1,1,1,1,1,1,1,1,1,1,0,1,1,1,1,1,1,1,1,1,1,1,1,1,1,0,0,0,0,0,0,0,0,0,0,0,0,0,0,0,0,0,0,0,0,0,0,0,0,1,1,1,0,0,0,0,0,1,1,1,0,1,1,0,0,0,0,0,0,0,0,0,0,0,0,0,0,0,0,0,0,0,0,0,0,0,0,1,1,1,0,0,0,0,0,0,0,0,0,1,1,0,1,1,1,1,1,1,1,1,1,1,0,0,1,1,1,1,1,1,1,1,1,1,0,1,0,0,0,0,0,0,0,1,0,1,1,1,1,0,1,1,1,1,1,1,1,1,1,1,0,0,1,1,1,1,1,1,1,1,1,1,0,1,0,0,0,0,1,1,1,1,1,1,0,1,1,0,0,0,0,0,0,0,0,0,0,0,0,0,0,0,0,0,0,0,0,0,0,0,0,1,0,1,0,0,0,0,0,0,0,0,0,1,1,0,0,0,0,0,0,0,0,0,0,0,0,0,0,0,0,0,0,0,0,0,0,0,0,0,0,0,0,0,0,0,0,0,0,0,0,1,1,0,1,1,1,1,1,1,1,1,1,1,0,0,1,1,1,1,1,1,1,1,1,1,0,0,0,0,0,0,0,0,0,0,0,0,1,1,1,0,1,1,1,1,1,1,1,1,1,1,0,0,1,1,1,1,1,1,1,1,1,1,0,1,0,0,1,1,0,0,0,0,0,0,0,1,1,0,0,0,0,0,0,0,0,0,0,0,0,0,0,0,0,0,0,0,0,0,0,0,0,1,0,0,0,0,0,0,0,0,0,0,0,1,1,0,0,0,0,0,0,0,0,0,0,0,0,0,0,0,0,0,0,0,0,0,0,0,1,1,1,0,0,0,0,0,0,0,0,0,0,1,1,1,0,0,0,0,0,0,0,0,0,0,0,0,0,0,0,0,0,0,0,0,0,0,1,1,0,0,0,0,0,0,0,0,0,0,0,1,1,0,0,0,0,0,0,0,0,0,0,0,0,0,0,0,0,0,0,0,0,0,0,0,0,1,0,0,0,0,1,0,0,0,0,0,0,1,1,1,1,1,1,1,1,1,1,1,1,1,0,0,1,1,1,1,1,1,1,1,1,1,1,1,1,1,1,1,1,1,1,1,1,1,1,1],"width":38,"height":26,"x":0,"y":0,"opacity":1,"visible":true},{"id":6,"name":"spawn-points","type":"objectgroup","objects":[{"id":1,"name":"desk-ceo","point":true,"x":192,"y":80,"width":0,"height":0,"rotation":0,"type":"","visible":true},{"id":2,"name":"pc-1","point":true,"x":64,"y":144,"width":0,"height":0,"rotation":0,"type":"","visible":true},{"id":3,"name":"pc-2","point":true,"x":128,"y":144,"width":0,"height":0,"rotation":0,"type":"","visible":true},{"id":4,"name":"pc-3","point":true,"x":256,"y":144,"width":0,"height":0,"rotation":0,"type":"","visible":true},{"id":5,"name":"pc-4","point":true,"x":320,"y":144,"width":0,"height":0,"rotation":0,"type":"","visible":true},{"id":6,"name":"pc-5","point":true,"x":64,"y":208,"width":0,"height":0,"rotation":0,"type":"","visible":true},{"id":7,"name":"pc-6","point":true,"x":128,"y":208,"width":0,"height":0,"rotation":0,"type":"","visible":true},{"id":8,"name":"pc-7","point":true,"x":256,"y":208,"width":0,"height":0,"rotation":0,"type":"","visible":true},{"id":9,"name":"pc-8","point":true,"x":320,"y":208,"width":0,"height":0,"rotation":0,"type":"","visible":true},{"id":10,"name":"pc-9","point":true,"x":64,"y":272,"width":0,"height":0,"rotation":0,"type":"","visible":true},{"id":11,"name":"pc-10","point":true,"x":128,"y":272,"width":0,"height":0,"rotation":0,"type":"","visible":true},{"id":12,"name":"pc-11","point":true,"x":256,"y":272,"width":0,"height":0,"rotation":0,"type":"","visible":true},{"id":13,"name":"pc-12","point":true,"x":320,"y":272,"width":0,"height":0,"rotation":0,"type":"","visible":true},{"id":14,"name":"pc-13","point":true,"x":64,"y":336,"width":0,"height":0,"rotation":0,"type":"","visible":true},{"id":15,"name":"pc-14","point":true,"x":128,"y":336,"width":0,"height":0,"rotation":0,"type":"","visible":true},{"id":16,"name":"pc-15","point":true,"x":256,"y":336,"width":0,"height":0,"rotation":0,"type":"","visible":true},{"id":17,"name":"pc-16","point":true,"x":320,"y":336,"width":0,"height":0,"rotation":0,"type":"","visible":true},{"id":18,"name":"cafe-seat-1","point":true,"x":448,"y":304,"width":0,"height":0,"rotation":0,"type":"","visible":true},{"id":19,"name":"cafe-seat-2","point":true,"x":448,"y":336,"width":0,"height":0,"rotation":0,"type":"","visible":true},{"id":20,"name":"cafe-seat-3","point":true,"x":464,"y":304,"width":0,"height":0,"rotation":0,"type":"","visible":true},{"id":21,"name":"cafe-seat-4","point":true,"x":464,"y":336,"width":0,"height":0,"rotation":0,"type":"","visible":true},{"id":22,"name":"cafe-stand-coffee","point":true,"x":528,"y":272,"width":0,"height":0,"rotation":0,"type":"","visible":true},{"id":23,"name":"cafe-stand-vending","point":true,"x":576,"y":320,"width":0,"height":0,"rotation":0,"type":"","visible":true},{"id":24,"name":"entrance","point":true,"x":192,"y":384,"width":0,"height":0,"rotation":0,"type":"","visible":true}],"draworder":"topdown","opacity":1,"visible":true,"x":0,"y":0},{"id":7,"name":"zones","type":"objectgroup","objects":[{"id":25,"name":"boardroom","x":432,"y":64,"width":144,"height":112,"rotation":0,"type":"","visible":true},{"id":26,"name":"cafeteria","x":416,"y":208,"width":176,"height":192,"rotation":0,"type":"","visible":true}],"draworder":"topdown","opacity":1,"visible":true,"x":0,"y":0}]}